icons/folder-tools.svg

<svg xmlns="http://www.w3.org/2000/svg" viewBox="0 0 16 16">
<path id="folder" fill="#1e88e5" d="m6.922 3.768-.644-.536A1 1 0 0 0 5.638 3H2a1 1 0 0 0-1 1v8a1 1 0 0 0 1 1h12a1 1 0 0 0 1-1V5a1 1 0 0 0-1-1H7.562a1 1 0 0 1-.64-.232" />
<path id="motive" fill="#bbdefb" d="M 12.1815,9.506 6.682,15 6,14.319 11.494,8.819 Z M 14.364,8.0985 14.651,7.8105 14.266,7.4255 14.578,7.114 13.886,6.4225 13.5745,6.7345 13.1895,6.3495 12.9025,6.637 A 10.25,10.25 0 0 0 10.0775,5 l -0.405,0.872 a 12.25,12.25 0 0 1 2.368,1.6265 l -0.244,0.244 1.4615,1.4615 0.244,-0.244 a 12.25,12.25 0 0 1 1.626,2.368 L 16,10.924 A 10.25,10.25 0 0 0 14.364,8.0985" />
</svg>

<svg xmlns="http://www.w3.org/2000/svg" viewBox="0 0 16 16"><path id="folder" fill="#1e88e5" d="m6.922 3.768-.644-.536A1 1 0 0 0 5.638 3H2a1 1 0 0 0-1 1v8a1 1 0 0 0 1 1h12a1 1 0 0 0 1-1V5a1 1 0 0 0-1-1H7.562a1 1 0 0 1-.64-.232"/><path id="motive" fill="#bbdefb" d="M12.182 9.506 6.682 15 6 14.319l5.494-5.5Zm2.182-1.408.287-.288-.385-.384.312-.312-.692-.691-.311.311-.385-.385-.287.288A10.3 10.3 0 0 0 10.078 5l-.405.872a12.3 12.3 0 0 1 2.368 1.627l-.244.244 1.461 1.461.244-.244a12.3 12.3 0 0 1 1.626 2.368l.872-.404a10.3 10.3 0 0 0-1.636-2.825"/></svg>
